packages/icons/src/gcr-ci-step-inverse.svg

<svg fill="none" viewBox="0 0 41 41" xmlns="http://www.w3.org/2000/svg" xmlns:xlink="http://www.w3.org/1999/xlink"><clipPath id="a"><path d="m.661621.967606h40v40h-40z"/></clipPath><g clip-path="url(#a)" clip-rule="evenodd" fill-rule="evenodd"><path d="m1.146 22.7646 8.20312 14.2109c.64062 1.1094 1.82808 1.7969 3.10938 1.7969h16.4062c1.2813 0 2.4688-.6875 3.1094-1.7969l8.2031-14.2109c.6407-1.1094.6407-2.4844 0-3.5937l-8.2031-14.21099c-.6406-1.10937-1.8281-1.79687-3.1094-1.79687h-16.4062c-1.2813 0-2.46876.6875-3.10938 1.79687l-8.20312 14.21099c-.640629 1.1093-.640629 2.4843 0 3.5937zm13.9531-10.1643v2.2187l-2.5625 1.4766v9.3438l2.5625 1.4765v2.2188l-4.5157-2.6094v-11.5156zm11.125 2.2187v-2.2187l4.5156 2.6094v11.5156l-4.5156 2.6094v-2.2188l2.5625-1.4765v-9.3438zm-5.5625 5.2891-2.5-1.4453v-2.8906l2.5-1.4453 2.5 1.4453v2.8906zm.7812 4.1797 2.5 1.4453 2.5-1.4453v-2.8906l-2.5-1.4453-2.5 1.4453zm-4.0625 1.4453-2.5-1.4453v-2.8906l2.5-1.4453 2.5 1.4453v2.8906z" fill="#fafcff"/><path d="m39.4741 23.9829-8.7343-8.7418v11.4842l-4.5156 2.6094v-2.2188l2.5625-1.4765-.0001-4.1868-5.625-5.6179.0001 2.8281-2.5 1.4453-2.5-1.4453v-2.8906l.0741-.0429-3.1211-3.1211-.0155.0131v2.1977l-2.5625 1.4766v9.3438l2.5625 1.4765v2.2188l-4.442-2.5668 12.0121 12.0045h6.1955c1.2813 0 2.4688-.6875 3.1094-1.7969zm-10.6874-7.6873-2.5281-1.4567-.0189.0193 2.5469 2.5469zm-4.8438 9.4375-2.5-1.4453v-2.8906l2.5-1.4453 2.5 1.4453v2.8906zm-9.0625-1.4453 2.5 1.4453 2.5-1.4453v-2.8906l-2.5-1.4453-2.5 1.4453z" fill="#d8e0ed"/></g></svg>

<svg viewBox="0 0 41 41" fill="none" xmlns="http://www.w3.org/2000/svg">
<g clip-path="url(#clip0_2952_318998)">
<path fill-rule="evenodd" clip-rule="evenodd" d="M1.146 22.7646L9.34912 36.9755C9.98974 38.0849 11.1772 38.7724 12.4585 38.7724H28.8647C30.146 38.7724 31.3335 38.0849 31.9741 36.9755L40.1772 22.7646C40.8179 21.6552 40.8179 20.2802 40.1772 19.1709L31.9741 4.95991C31.3335 3.85054 30.146 3.16304 28.8647 3.16304H12.4585C11.1772 3.16304 9.98974 3.85054 9.34912 4.95991L1.146 19.1709C0.505371 20.2802 0.505371 21.6552 1.146 22.7646ZM15.0991 12.6003V14.819L12.5366 16.2956V25.6394L15.0991 27.1159V29.3347L10.5834 26.7253V15.2097L15.0991 12.6003ZM26.2241 14.819V12.6003L30.7397 15.2097V26.7253L26.2241 29.3347V27.1159L28.7866 25.6394V16.2956L26.2241 14.819ZM20.6616 20.1081L18.1616 18.6628V15.7722L20.6616 14.3269L23.1616 15.7722V18.6628L20.6616 20.1081ZM21.4428 24.2878L23.9428 25.7331L26.4428 24.2878V21.3972L23.9428 19.9519L21.4428 21.3972V24.2878ZM17.3803 25.7331L14.8803 24.2878V21.3972L17.3803 19.9519L19.8803 21.3972V24.2878L17.3803 25.7331Z" fill="#FAFCFF"/>
<path fill-rule="evenodd" clip-rule="evenodd" d="M39.4741 23.9829L30.7398 15.2411L30.7398 26.7253L26.2242 29.3347V27.1159L28.7867 25.6394L28.7866 21.4526L23.1616 15.8347L23.1617 18.6628L20.6617 20.1081L18.1617 18.6628V15.7722L18.2358 15.7293L15.1147 12.6082L15.0992 12.6213V14.819L12.5367 16.2956V25.6394L15.0992 27.1159V29.3347L10.6572 26.7679L22.6693 38.7724H28.8648C30.1461 38.7724 31.3336 38.0849 31.9742 36.9755L39.4741 23.9829ZM28.7867 16.2956L26.2586 14.8389L26.2397 14.8582L28.7866 17.4051L28.7867 16.2956ZM23.9429 25.7331L21.4429 24.2878V21.3972L23.9429 19.9519L26.4429 21.3972V24.2878L23.9429 25.7331ZM14.8804 24.2878L17.3804 25.7331L19.8804 24.2878V21.3972L17.3804 19.9519L14.8804 21.3972V24.2878Z" fill="#D8E0ED"/>
</g>
<defs>
<clipPath id="clip0_2952_318998">
<rect width="40" height="40" fill="white" transform="translate(0.661621 0.967606)"/>
</clipPath>
</defs>
</svg>
